src/assets/img/icons/icon-share--pinterest.svg

<svg fill="none" height="20" viewBox="0 0 20 20" width="20" xmlns="http://www.w3.org/2000/svg"><path clip-rule="evenodd" d="m9.876 0c-5.477 0-9.876 4.43481-9.876 9.95866 0 4.10004 2.407 7.53054 5.893 9.12074 0-1.8675-.013-1.6265 1.41-7.6989-.782-1.57814-.174-4.18377 1.577-4.18377 2.43 0 .779 3.60287.498 5.02067-.249 1.088.581 1.925 1.577 1.925 1.909 0 3.153-2.4272 3.153-5.27177 0-2.17606-1.493-3.76626-4.066-3.76626-4.575 0-5.735 5.09533-4.149 6.69453.399.604 0 .6323 0 1.4228-.277.836-2.49-.3791-2.49-3.51413 0-2.84562 2.324-6.19239 7.054-6.19239 3.734 0 6.224 2.76091 6.224 5.69023 0 3.93259-2.158 6.77829-5.311 6.77829-1.079 0-2.075-.5859-2.407-1.2555-.603 2.3455-.725 3.5344-1.66 4.8533.913.2511 1.826.4185 2.822.4185 5.477 0 9.875-4.4348 9.875-9.9576-.248-5.60759-4.647-10.0424-10.124-10.0424" fill="#ed3439" fill-rule="evenodd"/></svg>

<svg width="20" height="20" viewBox="0 0 20 20" fill="none" xmlns="http://www.w3.org/2000/svg">
<path fill-rule="evenodd" clip-rule="evenodd" d="M9.876 0C4.399 0 0 4.43481 0 9.95866C0 14.0587 2.407 17.4892 5.893 19.0794C5.893 17.2119 5.88 17.4529 7.303 11.3805C6.521 9.80236 7.129 7.19673 8.88 7.19673C11.31 7.19673 9.659 10.7996 9.378 12.2174C9.129 13.3054 9.959 14.1424 10.955 14.1424C12.864 14.1424 14.108 11.7152 14.108 8.87063C14.108 6.69457 12.615 5.10437 10.042 5.10437C5.467 5.10437 4.307 10.1997 5.893 11.7989C6.292 12.4029 5.893 12.4312 5.893 13.2217C5.616 14.0577 3.403 12.8426 3.403 9.70757C3.403 6.86195 5.727 3.51518 10.457 3.51518C14.191 3.51518 16.681 6.27609 16.681 9.20541C16.681 13.138 14.523 15.9837 11.37 15.9837C10.291 15.9837 9.295 15.3978 8.963 14.7282C8.36 17.0737 8.238 18.2626 7.303 19.5815C8.216 19.8326 9.129 20 10.125 20C15.602 20 20 15.5652 20 10.0424C19.752 4.43481 15.353 0 9.876 0" fill="#ED3439"/>
</svg>
